static/img/svg/exit-fullscreen.svg

<svg xmlns="http://www.w3.org/2000/svg" width="24" height="24" viewBox="0 0 24 24"><path d="M10 9V3H8v5H3v2h6a1 1 0 0 0 1-1zM8 21h2v-6a1 1 0 0 0-1-1H3v2h5v5zM21 14h-6a1 1 0 0 0-1 1v6h2v-5h5v-2zM21 8h-5V3h-2v6a1 1 0 0 0 1 1h6V8z"/></svg>

<svg xmlns="http://www.w3.org/2000/svg" width="24" height="24" viewBox="0 0 24 24"><path d="M10 3L8 3 8 8 3 8 3 10 10 10zM8 21L10 21 10 14 3 14 3 16 8 16zM21 14L14 14 14 21 16 21 16 16 21 16zM21 8L16 8 16 3 14 3 14 10 21 10z"/></svg>
